X:1
T:[ID 1-109a]
T:[ID 1-109a]
T:Bezeichnung standardisiert: Tanz mit mir; Boure Dantz mit mir In dieser Quelle auch als: Courant In dieser Quelle auch als: Allegro In dieser Quelle auch als: Boure In dieser Quelle auch als: Tantz mit mir \"Ahnlich in dieser Quelle: ID 1-109a; \"Ahnlich in anderer Quelle: Neu-Hollaendisch - Hs. Arendsee (Anm. S. Wascher);
T:Urheber unbekannt Datum in der hier transkribierten schriftlichen Quelle: 1792
C:Urheber unbekannt
C:Datum in der hier transkribierten schriftlichen Quelle: 1792
L:1/8
M:2/4
K:D
V:1 treble 
V:1
 (df) f2 | (eg) g2 | (fa) a(g/f/) | e/d/c/B/ A/B/c/A/ | (df) f2 | (eg) g2 | fe/d/ e/g/e/c/ | %7
 d2 d2 :: fa a(g/f/) | ga b2 | eg g(f/e/) || fg a2 | df f2 | eg g2 | fe/d/ e/g/e/c/ | d2 d2 :| %16

